X: 1
T: Frank Gilruth
M: 4/4
L: 1/8
R: reel
K: Emaj
e2 dc BEGB|cFAc BEGB|e2 dc BEGB|cedf eagf|
e2 dc BEGB|cFAc BEGB|edec BEGB|cedf geeg|
agfe dece|Bede geeg|agfe dece|Bedf geeb|
agfe dece|Bede geea|gbge fafd|egec dfdB|
